resources/icons/svg/fixture-editor.svg

<?xml version="1.0" encoding="UTF-8"?>
<svg id="svg2974" xmlns="http://www.w3.org/2000/svg" version="1.1" xmlns:svg="http://www.w3.org/2000/svg" viewBox="0 0 256 256">
  <defs>
    <style>
      .cls-1 {
        fill: #fff;
        isolation: isolate;
        opacity: .6;
        stroke-width: 0px;
      }
    </style>
  </defs>
  <path class="cls-1" d="M208.2,39l8.8,8.8c9.4,9.4,9.4,24.6,0,34l-21.2,21.2-42.8-42.8,21.2-21.2c9.4-9.3,24.6-9.3,34,0h0Z"/>
  <path class="cls-1" d="M48.9,164.4l95.7-95.7,42.8,42.8-95.7,95.7c-2.5,2.5-5.7,4.4-9.1,5.3l-39,11.2c-3.2.9-6.5,0-8.9-2.3-2.3-2.3-3.2-5.7-2.3-8.9l11.2-39c.9-3.5,2.7-6.6,5.3-9.1h0Z"/>
  <path class="cls-1" d="M125.6,70.6l-54.8,54.8-32.8-32.8c-7-7-7-18.4,0-25.5l29.3-29.3c7-7,18.4-7,25.5,0l7.4,7.4c0,0-.3.2-.4.3l-24,24c-2.3,2.3-2.3,6.2,0,8.5s6.2,2.3,8.5,0l24-24c0,0,.2-.3.3-.4,0,.1,17,17,17,17Z"/>
  <path class="cls-1" d="M185.4,130.4l16.9,16.9c-.1.1-.3.2-.4.3l-24,24c-2.3,2.3-2.3,6.2,0,8.5s6.2,2.3,8.5,0l24-24c.1-.1.2-.3.3-.4l7.4,7.5c7,7,7,18.4,0,25.5l-29.2,29.3c-7,7-18.4,7-25.5,0l-32.8-32.8,54.8-54.8Z"/>
</svg>

<?xml version="1.0" encoding="utf-8"?>
<!-- Generator: Adobe Illustrator 27.9.0, SVG Export Plug-In . SVG Version: 6.00 Build 0)  -->
<svg version="1.1" id="svg2974" xmlns:svg="http://www.w3.org/2000/svg"
	 xmlns="http://www.w3.org/2000/svg" xmlns:xlink="http://www.w3.org/1999/xlink" x="0px" y="0px" viewBox="0 0 256 256"
	 style="enable-background:new 0 0 256 256;" xml:space="preserve">
<style type="text/css">
	.st0{opacity:0.56;fill:#FFFFFF;}
	.st1{fill:#EBA25C;}
</style>
<path class="st0" d="M208.2,39l8.8,8.8c9.4,9.4,9.4,24.6,0,34L195.8,103L153,60.2L174.2,39C183.6,29.7,198.8,29.7,208.2,39L208.2,39
	z"/>
<path class="st0" d="M48.9,164.4l95.7-95.7l42.8,42.8l-95.7,95.7c-2.5,2.5-5.7,4.4-9.1,5.3l-39,11.2c-3.2,0.9-6.5,0-8.9-2.3
	c-2.3-2.3-3.2-5.7-2.3-8.9l11.2-39C44.5,170,46.3,166.9,48.9,164.4L48.9,164.4z"/>
<path class="st1" d="M125.6,70.6l-54.8,54.8L38,92.6c-7-7-7-18.4,0-25.5l29.3-29.3c7-7,18.4-7,25.5,0l7.4,7.4
	c-0.1,0.1-0.3,0.2-0.4,0.3l-24,24c-2.3,2.3-2.3,6.2,0,8.5s6.2,2.3,8.5,0l24-24c0.1-0.1,0.2-0.3,0.3-0.4
	C108.7,53.7,125.6,70.6,125.6,70.6z"/>
<path class="st1" d="M185.4,130.4l16.9,16.9c-0.1,0.1-0.3,0.2-0.4,0.3l-24,24c-2.3,2.3-2.3,6.2,0,8.5s6.2,2.3,8.5,0l24-24
	c0.1-0.1,0.2-0.3,0.3-0.4l7.4,7.5c7,7,7,18.4,0,25.5L188.9,218c-7,7-18.4,7-25.5,0l-32.8-32.8L185.4,130.4z"/>
</svg>
